X: 6
T: The Killarney Boys Of Pleasure
R: reel
M: 4/4
L: 1/8
K: Edor
|:E3D E2FA|BFAF DEFA|B3d e3d|(3Bcd AF DEFD|
E2FD E2FA|BFAF DEFA|B3d efed|1 (3Bcd AF FEED:|2 (3Bcd AF FE E2||
|:Be e2 Be e2|dBAF DEFA|f2 fe f2 fe|dBAF DEFA|
Be e2 Be e2|dBAF DEFA|dffe fgfe|1 dBAF FE E2:|2 dBAF FEED||

